X:1
T: Braigh Bhanbh
C:
R:Strathspey
Q: 128
K:F
M:4/4
L:1/16
|:"aka      The Highlands of Banffshire"d2|cF3 c3B A3F Ff3|cF3 c3B A4 Af3|cF3 c3B AF3 c3A|B3G _EFG_A B6d2|
cF3 c3B A3F Ff3|cF3 c3B A4 Af3|cF3 c3B AF3 c3A|B3G _EFG_A B6b2|
a3f cf3 Af3 cb3|a3f c3B A4 A3b|a3f cf3 Af3 cA3|B3G _EFG_A B4-B3b|
a3f cf3 Af3 cb3|af3 c3B A3B c2gg|ag2f gf2e ((3f2e2d2) ((3c2B2A2) |B3G _EFG_A B6:|
